X:1
T:Largo e dolce
T: from Sonata No. 3 in A major for flute and harpsichord 
T:Johann Sebastian Bach (1685–1750) BWV 1032
%%score 1 { ( 2 4 ) | 3 }
L:1/8
Q:1/8=72
M:6/8
K:C
V:1 treble nm="Flute" snm="Fl."
V:2 treble nm=" " snm="Hch."
V:4 treble 
V:3 bass 
V:1
"^Largo e dolce" (c/B/d/c/B/A/) TA^G z | (e/d/f/e/d/c/) TcB z | ^c/d/ e2- e/d/(f/e/d/=c/) | %3
 B/c/ d2- d/(c/e/d/c/B/) | A3- A/(^G/B/A/G/A/) | E3- E/(^G/A/c/B/d/) | (^G/B/d/f/e/d/) c/d<de/ | %7
 e6- | e3- e.f z | Bcd e/4d/4c/ (B>c) | .c._B z (A/G/B/A/G/F/) | T^c2 d- d/e<Tcd/ | d3 .=c.B z | %13
 cB/A/d (B/A/G/A/B/c/) | d3- d/(G/A/B/c/d/) | e3- e/A/B/^c/d/e/ | f3{g} .^f.g z | %17
 (g/^f/)(a/g/f/e/) ^d2 z | (B/A/c/B/A/G/) TG^F z | (g/^f/a/g/f/e/) e^d z | d>fe/d/ c3- | %21
 c>ed/c/ B3- | B/(A/c/B/A/G/) ^F ^f2- | f/(a/g/^f/e/^d/) (e/f/g/b/a/c'/) | ^f^de- e/f<de/ | %25
 e/^f/^g/a/b/c'/ (d'bg) | (fdB) .^G.=G z | .^F.^G z .A.B.G | (A/^c/d/c/B/A/) (d/c/e/d/c/d/) | %29
 (e/d/f/e/d/e/) f3- | f/(G/A/B/c/d/) e3- | e/(A/^G/A/B/c/) d3- | d/(c/e/d/c/B/) c/A/BT^G | %33
 A/a/=g/e/f/d/ e/g/f/d/e/c/ | d>ec- c/B<BA/ | A>Bc- c/d<Tde/ | e6 |] %37
V:2
 E/D/F/E/D/C/ TCB, z | c/B/d/c/B/A/ TA^G z | G>_BA/G/ F3- | F>AG/F/ E3- | E/(D/F/E/D/C/) B,3- | %5
 B,/D/C/B,/A,/^G,/ A,/B,/C/E/D/F/ | B,^GB- B/G/A/c/B/A/ | ^G/^F/A/G/F/E/ A/G/B/A/G/A/ | %8
 B/d/c/B/A/B/ .^c.d z | DEF G/4F/4E/ D>E | TE3- E D2 | G>AF- F/G<TEF/ | F3 .^F.G z | %13
 AG^F GB,/C/D/E/ | =F3- F/B,/C/D/E/F/ | G3- G/^C/D/E/F/G/ | A3{AB} .c.B z | B/A/c/B/A/G/ ^F2 z | %18
 G/^F/A/G/F/E/ E^D z | B/A/c/B/A/G/ TG^F z | ^G/A/ B2- B/A/c/B/A/=G/ | ^F/G/ A2- A/G/B/A/G/F/ | %22
 E3- E/^D/^F/E/D/E/4F/4 | B,3- B,/^D/E/G/^F/A/ | ^D/^F/A/c/B/A/ G/A<FE/ | E3- E/^F/^G/A/B/c/ | %26
 dB^G .E.e z | .A{B}.d z c/B/d/c/B/c/ | TA6- | A3- A/D/E/F/G/A/ | B3- B/C/D/E/^F/^G/ | %31
 A3- A/B,/C/D/E/F/ | ^G,B,E- E/C/.DTB, | A,2 z z/ e/d/B/c/A/ | B>cA- A/B<^GA/ | %35
 A/E/F/D/E/B,/ C/^G,/A,/G,/A,/B,/ | C/E/D/ B,/C/A,/ B,3 |] %37
V:3
 A,A,,D, E,>D,C,/B,,/ | A,,A,D E>DC/B,/ | A, ^C,2 D,DF, | G,B,, z C,CE, | %4
 F,3- F,/E,/D,/C,/B,,/A,,/ | ^G,,/E,,/A,,/=G,,/F,,/E,,/ F,, F,2- | F,B,,^G,, A,, F,,2 | %7
 .E,,.D,, z C,/B,,/D,/C,/B,,/A,,/ | ^G,,/E,,/A,,/=G,,/F,,/E,,/ .G,,.F,, z | %9
 F,/E,/G,/F,/E,/D,/ C,G,G,, | C,^C, z F,G,/A,/_B, | E,/D,/F,/E,/D,/C,/ _B,,/G,,/A,,A, | %12
 D/C/E/D/C/B,/ .A,.E z | CDD, G,2 z | B,,/A,,/C,/B,,/A,,/G,,/ E,2 D, | %15
 C,/B,,/D,/C,/B,,/A,,/ F,2 E, | D,/C,/E,/D,/C,/B,,/ A,,E, z | C,^F,,A,, B,,/C,/B,,/A,,/G,,/F,,/ | %18
 E,,E,A, B,>A,G,/^F,/ | E,E,,A,, B,,>A,,G,,/^F,,/ | E,,^G,, z A,,A,C, | .D,.^F, z G,,G,B,, | %22
 C, z C- C/B,/A,/G,/^F,/E,/ | ^D,/B,,/E,/=D,/C,/B,,/ C,3- | C,E,,G,, A,,B,,B,, | E,,6- | %26
 E,,/^F,,/^G,,/A,,/B,,/C,/ .D,.^C, z | .C,.B,, z A,,D,,E,, | .A,,.G,, z F,/E,/G,/F,/E,/D,/ | %29
 ^C,/B,,/D,/C,/B,,/A,,/ D,2 z | G,,2 z C,2 z | F,2 z B,,2 z | E,^G,,E,, A,,D,,E,, | A,,6- | %34
 A,,/A,/^G,/E,/A,/E,/ F,/D,/E,E,, | A,,2 G,, F,,/E,,/ F,,2 | E,,6 |] %37
V:4
 x6 | x6 | x6 | x6 | x6 | x6 | x6 | x6 | x6 | x6 | x6 | x6 | x6 | x6 | x6 | x6 | x6 | x6 | x6 | %19
 x6 | x6 | x6 | x6 | x6 | x6 | x6 | x6 | x6 | x6 | x6 | x6 | x6 | x6 | x6 | x6 | z3 z A,A,- | %36
 A,/C/B,/^G,/A,/^F,/ G,3 |] %37

